X:551
T:John Ryan's
R:Polka
O:Ireland
S:My arrangement from various sources
Z:Transcription, arrangement, chords:Mike Long
M:2/4
L:1/8
K:D
"D"dd "G"B/c/d/B/|"D"AF AF|"D"dd "G"B/c/d/B/|"A"AF ED|\
"D"dd "G"B/c/d/B/|"D"AF Ad/e/|"D"fd "A"ec|[1 "D"d2 d2:|[2 "D"d2 dd/e/|]
|:"D"fd de/f/|"G"gf ed/e/|"D"fd Ad|"D"fd/f/ "A"aa/g/|\
"D"fd de/f/|"G"gf ed/e/|"D"fd "A"ec|[1 "D"d2 dd/e/:|[2 "D"d2 d2|]
